X: 38
T: No_135_Dream_Song.krn
%%abc-version 2.0
%%abcx-abcm2ps-target-version 5.9.1 (29 Sep 2008)
%%abc-creator hum2abc beta
%%abcx-conversion-date 2020/08/10 18:54:56
%%gracespace 0 6 6
%%humdrum-veritas 2122757474
%%humdrum-veritas-data 1424336801
%%linebreak <none>
%%barnumbers 0
L: 1/8
M: 2/4
%%staves {1 2}
V: 1 clef=treble
V: 2 clef=bass
K: Eb
[V:1] [K:clef=treble][M:2/4]G>F E/C3/ ||  
[V:2] [K:clef=bass][M:2/4](3!accent!G,, z G,, (3!accent!G,, z G,, ||  
[V:1] [M:3/4]C2>B,2C2 ||  
[V:2] [M:3/4]z6 ||  
[V:1] [M:2/4]G>F E/C3/ | 
[V:2] [M:2/4]z4 | 
[V:1] E>C C/B,3/[K:clef=bass] | 
[V:2] z4 | 
[V:1] B,B, G,/G,G,/ ||  
[V:2] z4 ||  
[V:1] [M:3/4]G,6 ||  
[V:2] [M:3/4]z6 ||  
[V:1] [M:2/4]C>B, B,/G,3/ | 
[V:2] [M:2/4]z4 | 
[V:1] C>B, B,/G,3/ | 
[V:2] z4 | 
[V:1] B,<B, G,/G,G,/ | 
[V:2] z4 | 
[V:1] G,4 |]  
[V:2] z4 |]  


